!!!SOCIAL_FUNCTION:	songs of war
!!!PDT:	1913
!!!OTL: No_5_Song_of_an_Unsatisfied_Warrior.krn
!!!REG: Great_Lakes
!!!LANG: Non-Tone
!!!LING_GROUP: Algonquin
**kern	**kern
*staff2	*staff1
=1-	=1-
*clefF4	*clefF4
*k[b-e-]	*k[b-e-]
*M2/4	*M2/4
8GG/L	8d\L
8GG/J	8d\J
8GG/L	8d\L
8GG/J	16.B-\L
.	32G\JJk
=2||	=2||
*M3/4	*M3/4
8GG/L	8.B-\L
8GG/J	.
.	16G\Jk
8GG/L	4G\
8GG/J	.
8GG/L	4G\
8GG/J	.
=3||	=3||
*M2/4	*M2/4
2r	8B-\L
.	8B-\J
.	8B-\L
.	16.G\L
.	32E-\JJk
=4||	=4||
*M3/4	*M3/4
2.r	8.G\L
.	16D\Jk
.	4D\
.	4D\
=5	=5
*M2/4	*M2/4
2r	8G\L
.	8G\J
.	8G\L
.	16.F\L
.	32D\JJk
=6||	=6||
*M3/4	*M3/4
2.r	8.F\L
.	16D\Jk
.	4D\
.	4F\
=7||	=7||
*M2/4	*M2/4
2r	4.D\
.	8D\
=8	=8
2r	2D\
==	==
*-	*-
